!!!!SEGMENT: pl-sa--l-1643--086_anonim--ave-maris-stella-dei-mater.krn
!!!cenid: 16xx:1448
!!!COM: Anonim
!!!COM-rismID: pe30004985
!!!CDT:
!!!CNT:
!!!OTL: Ave Maris stella Dei mater
!!!PDT:
!!!AGN: Sacred
!!!YEC: Copyright 2022 Narodowy Instytut Fryderyka Chopina (https://polishscores.org)
!!!YEM: License CC-BY-4.0 (https://creativecommons.org/licenses/by/4.0)
!!!SMS-siglum: PL-SA
!!!SMS-shelfmark: L 1643
!!!SMS-shelfwork: 086 W
!!!SMS-variant:
!!!SMS-altvar:
!!!NIFC-rismSourceID: 1001063205
!!!NIFC-rismChildID: 1001063205
!!!NIFC-islandoraID:
!!!URL-pdf-islandora:
!!!URL-scan:
!!!IIIF:
!!!ONB-nifc: UWAGA: 8 ksiąg. Primi chori: 1mus Cantus (160-161), C 2dus (162-163), C 3tius (158-159), Bassus (158-159); Secondi chori: Primus Cantus (163), C 2dus (164), Altus (162), Bassus (159). UWAGA: Nie dodawać pustych linii, chyba że w rękopisie pojawiają się dodatkowe oznaczenia dotyczące pełnej obsady (a 4, a 8 itp.)
!!!AIN: 8 empty
!!!key:
**kern	**text	**text	**text	**text	**kern	**text	**text	**text	**text	**kern	**text	**text	**text	**text	**kern	**text	**text	**text	**text	**kern	**text	**text	**text	**text	**kern	**text	**text	**text	**text	**kern	**text	**text	**text	**text	**kern	**text	**text	**text	**text
*part8	*	*	*	*	*part7	*	*	*	*	*part6	*	*	*	*	*part5	*	*	*	*	*part4	*	*	*	*	*part3	*	*	*	*	*part2	*	*	*	*	*part1	*	*	*	*
*staff8	*	*	*	*	*staff7	*	*	*	*	*staff6	*	*	*	*	*staff5	*	*	*	*	*staff4	*	*	*	*	*staff3	*	*	*	*	*staff2	*	*	*	*	*staff1	*	*	*	*
*Iempty	*	*	*	*	*Iempty	*	*	*	*	*Iempty	*	*	*	*	*Iempty	*	*	*	*	*Iempty	*	*	*	*	*Iempty	*	*	*	*	*Iempty	*	*	*	*	*Iempty	*	*	*	*
*I"Baſsus 2di Chori	*	*	*	*	*I"Altus secundi Chori.	*	*	*	*	*I"Cantus 2dus Secundi Chori.	*	*	*	*	*I"Primus Cantus 2di chori	*	*	*	*	*I"Bassus Primi Chori.	*	*	*	*	*I"Cantus 3tius Primi Chori	*	*	*	*	*I"Cantus 2dus Primi Chori.	*	*	*	*	*I"Im(us) Cantus Primi Chori	*	*	*	*
*I'II Coro B	*	*	*	*	*I'II Coro A	*	*	*	*	*I'II Coro S 2	*	*	*	*	*I'II Coro S 1	*	*	*	*	*I'I Coro B	*	*	*	*	*I'I Coro S 3	*	*	*	*	*I'I Coro S 2	*	*	*	*	*I'I Coro S 1	*	*	*	*
*clefC3	*	*	*	*	*clefC2	*	*	*	*	*clefC1	*	*	*	*	*clefG2	*	*	*	*	*clefC3	*	*	*	*	*clefC2	*	*	*	*	*clefC1	*	*	*	*	*clefG2	*	*	*	*
*k[b-]	*	*	*	*	*k[b-]	*	*	*	*	*k[b-]	*	*	*	*	*k[b-]	*	*	*	*	*k[b-]	*	*	*	*	*k[b-]	*	*	*	*	*k[b-]	*	*	*	*	*k[b-]	*	*	*	*
*g:	*	*	*	*	*g:	*	*	*	*	*g:	*	*	*	*	*g:	*	*	*	*	*g:	*	*	*	*	*g:	*	*	*	*	*g:	*	*	*	*	*g:	*	*	*	*
*M2/2	*	*	*	*	*M2/2	*	*	*	*	*M2/2	*	*	*	*	*M2/2	*	*	*	*	*M2/2	*	*	*	*	*M2/2	*	*	*	*	*M2/2	*	*	*	*	*M2/2	*	*	*	*
*met(C|)	*	*	*	*	*met(C|)	*	*	*	*	*met(C|)	*	*	*	*	*met(C|)	*	*	*	*	*met(C|)	*	*	*	*	*met(C|)	*	*	*	*	*met(C|)	*	*	*	*	*met(C|)	*	*	*	*
=1-	=1-	=1-	=1-	=1-	=1-	=1-	=1-	=1-	=1-	=1-	=1-	=1-	=1-	=1-	=1-	=1-	=1-	=1-	=1-	=1-	=1-	=1-	=1-	=1-	=1-	=1-	=1-	=1-	=1-	=1-	=1-	=1-	=1-	=1-	=1-	=1-	=1-	=1-	=1-
00r	.	.	.	.	00r	.	.	.	.	00r	.	.	.	.	00r	.	.	.	.	2g\	A-	Su-	Mon-	Vi-	2g\	A-	Su-	Mon-	Vi-	2g/	A-	Su-	Mon-	Vi-	2dd\	A-	Su-	Mon-	Vi-
.	.	.	.	.	.	.	.	.	.	.	.	.	.	.	.	.	.	.	.	2g\	-ue	-mens	-stra	-tam	2g\	-ue	-mens	-stra	-tam	2b-\	-ue	-mens	-stra	-tam	2dd\	-ue	-mens	-stra	-tam
!	!	!	!	!	!	!	!	!	!	!	!	!	!	!	!	!	!	!	!	!	!	!	!	!	!LO:TX:b:t=P:problem=# below	!	!	!	!	!	!	!	!	!	!	!	!	!	!
.	.	.	.	.	.	.	.	.	.	.	.	.	.	.	.	.	.	.	.	2d\	ma-	il-	te	prae-	2f#X\	ma-	il-	te	prae-	2a\	Ma-	il-	te	prae-	2dd\	Ma-	il-	te	prae-
.	.	.	.	.	.	.	.	.	.	.	.	.	.	.	.	.	.	.	.	2g\	-ris	-lud	eſ-	-ſta	2g\	-ris	-lud	eſ-	-ſta	2b-\	-ris	-lud	eſ-	-ſta	4dd\	-ris	-lud	eſ-	-ſta
.	.	.	.	.	.	.	.	.	.	.	.	.	.	.	.	.	.	.	.	.	.	.	.	.	.	.	.	.	.	.	.	.	.	.	4ee\	.	.	.	.
=2-	=2-	=2-	=2-	=2-	=2-	=2-	=2-	=2-	=2-	=2-	=2-	=2-	=2-	=2-	=2-	=2-	=2-	=2-	=2-	=2-	=2-	=2-	=2-	=2-	=2-	=2-	=2-	=2-	=2-	=2-	=2-	=2-	=2-	=2-	=2-	=2-	=2-	=2-	=2-
.	.	.	.	.	.	.	.	.	.	.	.	.	.	.	.	.	.	.	.	2.f\	stel-	a-	-se	pu-	2.a\	stel-	a-	-se	pu-	2.cc\	stel-	a-	-se	pu-	2.ff\	ſtel-	a-	-se-	pu-
.	.	.	.	.	.	.	.	.	.	.	.	.	.	.	.	.	.	.	.	4g\	.	.	ma-	.	4g\	.	.	ma-	.	4b-\	.	.	ma-	.	4dd\	.	.	ma-	.
!	!	!	!	!	!	!	!	!	!	!	!	!	!	!	!	!	!	!	!	!	!	!	!	!	!LO:TX:b:t=P:problem=# below	!	!	!	!	!	!	!	!	!	!	!	!	!	!
.	.	.	.	.	.	.	.	.	.	.	.	.	.	.	.	.	.	.	.	1d	-la	-ue	-trem	-ram	1f#X	-la	-ue	-trem	-ram	1a	-la	-ue	-trem	-ram	1dd	-la	-ue	-trem	-ram
=3-	=3-	=3-	=3-	=3-	=3-	=3-	=3-	=3-	=3-	=3-	=3-	=3-	=3-	=3-	=3-	=3-	=3-	=3-	=3-	=3-	=3-	=3-	=3-	=3-	=3-	=3-	=3-	=3-	=3-	=3-	=3-	=3-	=3-	=3-	=3-	=3-	=3-	=3-	=3-
2B-/	De-	Ga-	Su-	I-	2b-\	De-	Ga-	Su-	I-	2dd\	De-	Ga-	Su-	I-	2ff\	De-	Ga-	Su-	I-	00r	.	.	.	.	00r	.	.	.	.	00r	.	.	.	.	00r	.	.	.	.
2B-/	-i	-bri-	-mat	-ter	2b-\	-i	-bri-	-mat	-ter	2dd\	-i	-bri-	-mat	-ter	2ff\	-i	-bri-	-mat	-ter	.	.	.	.	.	.	.	.	.	.	.	.	.	.	.	.	.	.	.	.
2f\	ma-	-e-	per	pa-	2a\	ma-	-e-	per	pa-	2cc\	ma-	-e-	per	pa-	2ff\	ma-	-e-	per	pa-	.	.	.	.	.	.	.	.	.	.	.	.	.	.	.	.	.	.	.	.
2g\	-ter	-lis	te	-ra	2g\	-ter	-lis	te	-ra	2b-\	-ter	-lis	te	-ra	2dd\	-ter	-lis	te	-ra	.	.	.	.	.	.	.	.	.	.	.	.	.	.	.	.	.	.	.	.
=4-	=4-	=4-	=4-	=4-	=4-	=4-	=4-	=4-	=4-	=4-	=4-	=4-	=4-	=4-	=4-	=4-	=4-	=4-	=4-	=4-	=4-	=4-	=4-	=4-	=4-	=4-	=4-	=4-	=4-	=4-	=4-	=4-	=4-	=4-	=4-	=4-	=4-	=4-	=4-
2d\	al-	o-	pre-	tu-	2f\	al-	o-	pre-	tu-	2a\	al-	o-	pre-	tu-	2.dd\	al-	o-	pre-	tu-	.	.	.	.	.	.	.	.	.	.	.	.	.	.	.	.	.	.	.	.
2g\	.	.	.	.	2g\	.	.	.	.	2b-\	.	.	.	.	.	.	.	.	.	.	.	.	.	.	.	.	.	.	.	.	.	.	.	.	.	.	.	.	.
.	.	.	.	.	.	.	.	.	.	.	.	.	.	.	4ee\	.	.	.	.	.	.	.	.	.	.	.	.	.	.	.	.	.	.	.	.	.	.	.	.
1f	-ma	-re	-ces	-tum	1a	-ma	-re	-ces	-tum	1cc	-ma	-re	-ces	-tum	1ff	-ma	-re	-ces	-tum	.	.	.	.	.	.	.	.	.	.	.	.	.	.	.	.	.	.	.	.
=5-	=5-	=5-	=5-	=5-	=5-	=5-	=5-	=5-	=5-	=5-	=5-	=5-	=5-	=5-	=5-	=5-	=5-	=5-	=5-	=5-	=5-	=5-	=5-	=5-	=5-	=5-	=5-	=5-	=5-	=5-	=5-	=5-	=5-	=5-	=5-	=5-	=5-	=5-	=5-
00r	.	.	.	.	00r	.	.	.	.	00r	.	.	.	.	00r	.	.	.	.	2.f\	at-	Fun-	qui	Vt	2.a\	at-	Fun-	qui	Vt	2.cc\	at-	Fun-	qui	ut	2.ff\	at-	Fun-	qui	ut
.	.	.	.	.	.	.	.	.	.	.	.	.	.	.	.	.	.	.	.	4g\	-que	-da	pro	vi-	4g\	-que	-da	pro	vi-	4b-\	-que	-da	pro	vi-	4dd\	-que	-da	pro	vi-
!	!	!	!	!	!	!	!	!	!	!	!	!	!	!	!	!	!	!	!	!	!	!	!	!	!LO:TX:b:t=P:problem=# below	!	!	!	!	!	!	!	!	!	!	!	!	!	!
.	.	.	.	.	.	.	.	.	.	.	.	.	.	.	.	.	.	.	.	2d\	Sem-	nos	no-	-den-	2f#X\	sem-	nos	no-	-den-	2a\	sem-	nos	no-	-den-	2dd\	sem-	nos	no-	-den-
.	.	.	.	.	.	.	.	.	.	.	.	.	.	.	.	.	.	.	.	2g\	-per	in	-bis	-tes	2g\	-per	in	-bis	-tes	2b-\	-per	in	-bis	-tes	4dd\	-per	in	-bis	-tes
.	.	.	.	.	.	.	.	.	.	.	.	.	.	.	.	.	.	.	.	.	.	.	.	.	.	.	.	.	.	.	.	.	.	.	4ee\	.	.	.	.
=6-	=6-	=6-	=6-	=6-	=6-	=6-	=6-	=6-	=6-	=6-	=6-	=6-	=6-	=6-	=6-	=6-	=6-	=6-	=6-	=6-	=6-	=6-	=6-	=6-	=6-	=6-	=6-	=6-	=6-	=6-	=6-	=6-	=6-	=6-	=6-	=6-	=6-	=6-	=6-
.	.	.	.	.	.	.	.	.	.	.	.	.	.	.	.	.	.	.	.	2.f\	Vir-	pa-	na-	Je-	2.a\	Vir-	pa-	na-	Je-	2.cc\	Vir-	pa-	na-	Je-	2.ff\	Vir-	pa-	na-	Je-
.	.	.	.	.	.	.	.	.	.	.	.	.	.	.	.	.	.	.	.	4g\	.	.	.	.	4g\	.	.	.	.	4b-\	.	.	.	.	4dd\	.	.	.	.
!	!	!	!	!	!	!	!	!	!	!	!	!	!	!	!	!	!	!	!	!	!	!	!	!	!LO:TX:b:t=P:problem=# below	!	!	!	!	!	!	!	!	!	!	!	!	!	!
.	.	.	.	.	.	.	.	.	.	.	.	.	.	.	.	.	.	.	.	1d	-go	-ce	-tus	-sum	1f#X	-go	-ce	-tus	-sum	1a	-go	-ce	-tus	-sum	1dd	-go	-ce	-tus	-sum
=7-	=7-	=7-	=7-	=7-	=7-	=7-	=7-	=7-	=7-	=7-	=7-	=7-	=7-	=7-	=7-	=7-	=7-	=7-	=7-	=7-	=7-	=7-	=7-	=7-	=7-	=7-	=7-	=7-	=7-	=7-	=7-	=7-	=7-	=7-	=7-	=7-	=7-	=7-	=7-
!	!	!	!	!	!	!	!	!	!	!	!	!	!	!	!	!	!	!	!	!	!	!	!	!	!	!	!	!	!	!	!	!	!LO:MO:mod=tu-	!	!	!	!	!	!
2.B-/	Fe-	Mu-	tu-	Sem-	2.f\	fe-	Mu-	tu-	Sem-	2.b-\	fe-	Mu-	tu-	Sem-	2.dd\	Fe-	Mu-	tu-	Sem-	2.B-/	Fe-	Mu-	tu-	Sem-	2.b-\	Fe-	Mu-	tu-	sem-	2.dd\	Fe-	Mu-	tul-	Sem-	2.ff\	Fe-	Mu-	tu-	Sem-
!	!	!	!	!	!	!	!	!	!	!	!	!	!	!	!	!	!	!	!LO:MO:mod=-per	!	!	!	!	!	!	!	!	!	!	!	!	!	!	!	!	!	!	!	!
4B-/	-lix	-tans	-lit	-per	4f\	-lix	-tans	-lit	-per	4b-\	-lix	-tans	-lit	-per	4dd\	-lix	-tans	-lit	-pe	4B-/	-lix	-tans	-lit	-per	4b-\	-lix	-tans	-lit	-per	4dd\	-lix	-tans	-lit	-per	4ff\	-lix	-tans	-lit	-per
2f\	cae-	E-	eſ-	col-	2a\	cae-	E-	eſ-	col-	2cc\	cae-	E-	eſ-	col-	2a/	cae-	E-	eſ-	col-	2F/	cae-	E-	eſ-	col-	2a\	cae-	E-	eſ-	col-	2cc\	cae-	E-	eſ-	col-	2ff\	cae-	E-	eſ-	col-
!	!	!	!	!LO:MO:mod=-lae-	!	!	!	!	!LO:MO:mod=-lae-	!	!	!	!	!LO:MO:mod=-lae-	!	!	!	!	!LO:MO:mod=-lae-	!	!	!	!	!LO:MO:mod=-lae-	!	!	!	!	!LO:MO:mod=-lae-	!	!	!	!	!LO:MO:mod=-lae-	!	!	!	!	!LO:MO:mod=-lae-
4d\	-li	-uae	-se	-le-	2d/	-li	-uae	-se	-le-	2g/	-li	-uae	-se	-le-	2b-/	-li	-uae	-se	-le-	2G/	-li	-uae	-se	-le-	2g\	-li	-vae	-se	-le-	2b-\	-li	-uae	-se	-le-	2dd\	-li	-uae	-se	-le-
4g\	.	no-	.	.	.	.	.	.	.	.	.	.	.	.	.	.	.	.	.	.	.	.	.	.	.	.	.	.	.	.	.	.	.	.	.	.	.	.	.
=8-	=8-	=8-	=8-	=8-	=8-	=8-	=8-	=8-	=8-	=8-	=8-	=8-	=8-	=8-	=8-	=8-	=8-	=8-	=8-	=8-	=8-	=8-	=8-	=8-	=8-	=8-	=8-	=8-	=8-	=8-	=8-	=8-	=8-	=8-	=8-	=8-	=8-	=8-	=8-
!	!	!	!	!	!	!	!	!	!	!	!	!	!	!	!	!	!	!	!	!	!	!	!	!	!LO:TX:b:t=P:problem=# below	!	!	!	!	!	!	!	!	!	!	!	!	!	!LO:MO:mod=-te-
2d\	por-	-men	tu-	-te-	2.d/	por-	no-	tu-	-te-	2a\	por-	no-	tu-	-te-	2.dd\	por-	no-	tu-	-te-	2d\	por-	no-	tu-	-te-	2f#X\	por-	no-	tu-	-te-	2a\	por-	no-	tu-	-te-	2.dd\	por-	no-	tu-	-ten-
4g\	.	mu-	.	.	.	.	.	.	.	2g/	-ta	-men	-us	-mur	.	.	.	.	.	4G/	-ta	-men	-us	-mur	4g\	-ta	-men	-us	-mur	4b-\	-ta	-men	-us	-mur	.	.	.	.	.
4g\	-ta	-tans	-us	-mur	4g\	-ta	.	.	-mur	.	.	.	.	.	8cc\L	.	.	-us	-mur	4c/	.	.	.	.	4e/	.	.	.	.	4g/	.	.	.	.	4ee-X\	.	.	.	.
.	.	.	.	.	.	.	.	.	.	.	.	.	.	.	8b-\J	.	.	.	.	.	.	.	.	.	.	.	.	.	.	.	.	.	.	.	.	.	.	.	.
!	!	!	!	!	!	!	!	!	!	!	!	!	!	!LO:MO:mod=collae-	!	!	!	!	!	!	!	!	!	!	!LO:TX:b:t=P:problem=# below	!	!	!	!	!	!	!	!	!	!	!	!	!	!
4d\	coe-	E-	eſ-	col-	4d/	cae-	.	.	col-	2.dd\	por-	no-	tu-	colle-	4a/	.	.	eſ-	col-	4d\	coe-	E-	eſ-	col-	4f#X\	cae-	E-	eſ-	col-	4a\	cae-	E-	eſ-	col-	1dd	.	.	.	.
!	!	!	!	!LO:MO:mod=-lae-	!	!	!	!	!LO:MO:mod=-lae-	!	!	!	!	!	!	!	!	!	!LO:MO:mod=-lae-	!	!	!	!	!LO:MO:mod=-lae-	!	!	!	!	!LO:MO:mod=-lae-	!	!	!	!	!LO:MO:mod=-lae-	!	!	!	!	!
4g\	-li	-uae	-se	-le-	4d/	-li	-men	-us	-le-	.	.	.	.	.	2dd\	.	.	-se	-le-	4G/	-li	-uae	-se	-le-	2g\	-li	-vae	-se	-le-	4b-\	-li	-uae	-se	-le-	.	.	.	.	.
2d\	por-	no-	tu-	-te-	2d/	por-	no-	tu-	-te-	.	.	.	.	.	.	.	.	.	.	2d\	por-	no-	tu-	-te-	.	.	.	.	.	2a\	por-	no-	tu-	-te-	.	.	.	.	.
!	!	!	!	!	!	!	!	!	!	!	!	!	!	!	!	!	!	!	!	!	!	!	!	!	!LO:TX:a:t=P:problem=# above	!	!	!	!	!	!	!	!	!	!	!	!	!	!
.	.	.	.	.	.	.	.	.	.	4a\	.	.	.	-te	4dd\	.	.	tu-	-te-	.	.	.	.	.	4f#X\	por-	no-	tu-	-te-	.	.	.	.	.	.	.	.	.	.
=9-	=9-	=9-	=9-	=9-	=9-	=9-	=9-	=9-	=9-	=9-	=9-	=9-	=9-	=9-	=9-	=9-	=9-	=9-	=9-	=9-	=9-	=9-	=9-	=9-	=9-	=9-	=9-	=9-	=9-	=9-	=9-	=9-	=9-	=9-	=9-	=9-	=9-	=9-	=9-
!	!	!	!	!	!	!	!	!	!	!LO:N:acc=#	!	!	!	!	!	!	!	!	!	!	!	!	!	!	!	!	!	!	!	!	!	!	!	!	!	!	!	!	!
0g;;l	-ta	-men	-us	-mur.	0d;;l	-ta	-men	-us	-mur.	0bn;;l	-ta	-men	-us	-mur.	0dd;;l	-ta	-men	-us	-mur.	0G;l	-ta	-men	-us.	-mur.	0g;;l	-ta	-men.	-us	-mur.	0g;;l	-ta	-men.	-us	-mur	0dd;;l	-ta	-men	-us	-mur.
==	==	==	==	==	==	==	==	==	==	==	==	==	==	==	==	==	==	==	==	==	==	==	==	==	==	==	==	==	==	==	==	==	==	==	==	==	==	==	==
*-	*-	*-	*-	*-	*-	*-	*-	*-	*-	*-	*-	*-	*-	*-	*-	*-	*-	*-	*-	*-	*-	*-	*-	*-	*-	*-	*-	*-	*-	*-	*-	*-	*-	*-	*-	*-	*-	*-	*-
!!!system-decoration: [(s1,s2,s3,s4)][(s5,s6,s7,s8)]
!!!RDF**kern: l = terminal long
!!!ENC: Andrzej Gręziak
!!!END: 2021-10-28
!!!ENC: Marta Lawrence
!!!END: 2021-11-03
